!!!ONB: MCCC : IJB0154_04 : Extracted Monophonic Melody
!!!COM: Brahms, Johannes
!!!OPR: Violin Sonata No.3
!!!OMV: 4
!!!SCT: Op.108
!!!ODT: 1886///
**kern
*staff1
=1
*clefG2
*k[b-]
*F:
*M6/8
8e
8A
8e
8e
8A
8a
=2
8a
8d
8a
8a
8d
8a
=3
8dd
8d
8dd
8dd
8d
8f#
=4
4.g
4.d
=5
4.aa[
4aa]
8ee
=6
2.ff[
=7
4.ff]
8ee
8gg
8bb-
=8
8ddd
8ccc
8bb-
8aa
8gg
8aa-
=9
4.aa[
4aa]
8ee
=10
2.ff#[
=11
4.ff#]
8gg
8bb-
8ddd
=12
8ggg
8fff
8eee
8ddd
8bb
8ccc#
=13
8ddd
8d
8dd
8dd
8d
8dd
=14
8dd
8d
8dd
8dd
8d
8dd
=15
8b-
8B-
8b-
8b-
8B-
8b-
=16
4.dd
4.a
=17
2.r
=18
8r
8a
8A
4c#
8d
=19
2.e
=20
4.aa[
4aa]
8ee
=21
4.ff
4.r
=22
8r
8a
8A
4c#
8d
=23
2.g
=24
4.ccc[
4ccc]
8gg
=25
4.aa
4.r
=26
8r
8a
8A
4e-
8e
=27
2.f
=28
8r
8a
8A
4e-
8e
=29
2.f#
=30
4.ee[
4ee]
8b
=31
4.dd
4.cc
=32
2.r
=33
2.r
=34
4.dd
4.cc
=35
4.b
4.r
=36
4.b
4.a
=37
4.a-
4.r
=38
2.r
=39
2.r
=40
2.r
=41
2.r
=42
2.r
=43
2.r
=44
2.r
=45
2.r
=46
2.r
=47
2.r
=48
2.r
=49
2.r
=50
4.r
4.B[
=51
4.B]
4.e
=52
4.g
4.f#
=53
2.r
=54
2.r
=55
4.ee
4.dd
=56
4.cc
4.ff[
=57
2.ff]
=58
4.aa
4.gg
=59
4.ff
4.cc#[
=60
2.cc#]
=61
4.cc
4.ff
=62
4.ee
4.gg
=63
4.dd
4.gg
=64
4.ff#
4.aa
=65
4.ee
4.aa
=66
4.ccc
4.bb
=67
4.ddd
4.ccc
=68
4.bb
4.aa
=69
4.r
4.a
=70
4.cc
4.b
=71
4.r
4.d
=72
4.B
4.A
=73
2.r
=74
2.r
=75
2.r
=76
4.r
4r
8e
=77
4.ee[
8ee]
8dd
8cc
=78
8b
8cc
8dd
8cc
8a
8ff#
=79
4.ee[
8ee]
8dd
8cc
=80
8b
8cc
8dd
8cc
8a
8ff#
=81
4.aa-[
8aa-]
8aa
8bb
=82
4.aa[
4aa]
8a
=83
4.ee-[
8ee-]
8ee
8ff#
=84
4.ee[
8ee]
8dd
8cc
=85
8b
8cc
8dd
8cc
8b
8a
=86
4.ee[
8ee]
8dd
8cc
=87
8b
8cc
8dd
8cc
8b
8a
=88
4.ff[
8ff]
8ee
8cc
=89
8b
8dd
8ff
4.aa-[
=90
8aa-]
8gg
8ee
8dd#
8ff#
8aa
=91
4.ccc[
8ccc]
8bb
8gg
=92
2.r
=93
4.aa-[
8aa-]
8aa
8bb
=94
4.aa
4.r
=95
4.a-[
8a-]
8a
8b
=96
4.a
4r
8a-[
=97
4a-]
8g[
4g]
8b-[
=98
4b-]
8a[
4a]
8cc[
=99
4cc]
8a[
4a]
8aa[
=100
4aa]
8cc[
4cc]
8ccc[
=101
4ccc]
8ee[
4ee]
8eee[
=102
4eee]
8ee[
4ee]
8eee[
=103
4eee]
8ee[
4ee]
8eee
=104
8aa
8ee
8aa
4ccc
8bb
=105
8r
8ddd
8ccc
4bb
8aa
=106
2.r
=107
4.r
8r
8ee
8aa
=108
8gg#
8bb
8aa
8ccc
8bb
8ddd
=109
8ccc
8eee
8ddd
8fff
8ddd
8bb
=110
8gg
8eee
8ddd
8fff
8ddd
8bb
=111
8aa-
8eee
8ddd
8fff
8ddd
8bb
=112
8gg
8aa-
8ff
8dd
8b
8cc
=113
8a
8f#
8e-
4.r
=114
8b
8e
8b
8b
8e
8ee
=115
8ee
8e
8ee
8ee
8e
8ee
=116
8cc
8c
8cc
8cc
8c
8a
=117
4.b-
4.g
=118
4.aa[
4aa]
8ee
=119
2.ff[
=120
4.ff]
8ee
8gg
8bb-
=121
8ddd
8ccc
8bb-
8aa
8gg
8aa-
=122
4.aa[
4aa]
8ee
=123
2.ff#[
=124
4.ff#]
8gg
8bb-
8ddd
=125
8ggg
8fff
8eee
8ddd
8bb
8ccc#
=126
8ddd
8d
8dd
8dd
8d
8dd
=127
8dd
8d
8dd
8dd
8d
8dd
=128
8b-
8B-
8b-
8b-
8B-
8b-
=129
4.dd
4.a
=130
2.r
=131
2.r
=132
2.r
=133
2.r
=134
4.g[
4g]
8d
=135
2.e-[
=136
4.e-]
4.d
=137
4.cc
4.f#
=138
4.g[
4g]
8d
=139
2.e-[
=140
4e-]
8e-
4.e[
=141
4e]
8e
4f
8e-[
=142
4e-]
8c#[
4c#]
8f[
=143
4f]
8e-[
4e-]
8c#[
=144
4c#]
8c[
4c]
8f[
=145
4f]
8f#[
4f#]
8e-[
=146
4e-]
8d[
4d]
8c#[
=147
4c#]
8e[
4e]
8c#[
=148
4c#]
8e[
4e]
8c#[
=149
4c#]
8e-[
4e-]
8c
=150
4e-
8A-
4c#
8e
=151
4e
8f#[
4f#]
8c#[
=152
4c#]
8e-[
4e-]
8e-[
=153
4e-]
8e-
4f#
8e-[
=154
4e-]
8A-
4.c#[
=155
4c#]
8c#
4.cc#[
=156
4cc#]
8cc#
4.cc[
=157
4cc]
8cc
4.b
=158
4.B[
4B]
8B
=159
4.c[
4c]
8c
=160
4.c#[
4c#]
8cc#
=161
4.dd[
4dd]
8dd
=162
4.ee-[
4ee-]
8ee-
=163
4.ee[
4ee]
8ee
=164
4.gg[
4gg]
8gg
=165
4.aa-[
4aa-]
8aa-
=166
4.bb[
4bb]
8bb
=167
4.ccc[
4ccc]
8ccc
=168
4ccc#
8ddd[
4ddd]
8eee-[
=169
4eee-]
8eee[
4eee]
8fff[
=170
4fff]
8fff#[
4fff#]
8fff[
=171
4fff]
8fff#[
4fff#]
8fff
=172
4.fff[
4fff]
8ccc
=173
2.ccc#[
=174
4.ccc#]
8cc
8ee
8gg
=175
8ccc
8bb-
8aa-
8gg
8ff
8ee
=176
4.ff
4.r
=177
8r
8gg
8ff
8ee
8ff
8ee-
=178
4cc#
8b-[
8b-]
8a
8cc
=179
4cc#
8b-[
8b-]
8a
8cc
=180
4cc#
8cc[
8cc]
8b
8dd
=181
8cc
8ee-
8gg
8ccc
8bb-
8aa-
=182
8gg
8ff
8ff#
8gg
8dd
8ee
=183
8ff
8cc
8a-[
8a-]
8g
8ee
=184
8ff
8cc
8a-[
8a-]
8g
8ee
=185
8ff
8gg
8aa-[
8aa-]
8bb-
8ccc[
=186
8ccc]
8ddd
8eee-[
8eee-]
8ddd
8ccc#
=187
4.ddd
4.r
=188
8r
8eee
8ddd
8ccc#
8ddd
8ccc
=189
4bb-
8gg[
8gg]
8ff#
8aa
=190
4bb-
8gg[
8gg]
8ff#
8aa
=191
4ddd
8bb-[
8bb-]
8aa
8ccc#
=192
4fff
8ddd[
4ddd]
8bb-[
=193
4bb-]
8gg[
4gg]
8dd
=194
4.aa
4.r
=195
8r
8a
8A
4c#
8d
=196
2.e
=197
4.aa[
4aa]
8ee
=198
4.ff
4.r
=199
8r
8a
8A
4e-
8e
=200
2.f#
=201
4.eee[
4eee]
8bb
=202
4.ccc
8r
8ee
8e
=203
8r
8cc
8e
4g
8a
=204
4.f
8r
8ccc
8cc
=205
8r
8aa
8a
4ee
8ff
=206
4.dd
8r
8ee
8ccc#
=207
4.ddd
8r
8e
8cc#
=208
4.dd
4.r
=209
2.r
=210
2.r
=211
2.r
=212
2.r
=213
4.gg
4.ff
=214
4.ee
4.r
=215
4.ee
4.dd
=216
4.cc#
4.r
=217
2.r
=218
2.r
=219
2.r
=220
2.r
=221
2.r
=222
2.r
=223
2.r
=224
2.r
=225
2.r
=226
2.r
=227
2.r
=228
2.r
=229
4.r
4.e[
=230
4.e]
4.a
=231
4.cc
4.b
=232
2.r
=233
2.r
=234
4.aa
4.gg
=235
4.ff
4.bb-[
=236
2.bb-]
=237
4.ddd
4.ccc
=238
4.bb-
4.ff#[
=239
2.ff#]
=240
4.ff
4.bb-
=241
4.aa
4.ccc
=242
4.gg
4.ccc
=243
4.bb
4.ddd
=244
4.aa
4.ddd
=245
4.fff
4.eee
=246
4.ggg
4.fff
=247
4.eee
4.ddd
=248
4.r
4.dd
=249
4.ff
4.ee
=250
4.r
4.g
=251
4.e
4.d
=252
2.r
=253
2.r
=254
2.r
=255
4.r
4r
8a
=256
4.aa[
8aa]
8gg
8ff
=257
8ee
8ff
8gg
8ff
8dd
8bb
=258
4.aa[
8aa]
8gg
8ff
=259
8ee
8ff
8gg
8ff
8dd
8bb
=260
4.ccc#[
8ccc#]
8ddd
8eee
=261
4.ddd[
4ddd]
8dd
=262
4.aa-[
8aa-]
8aa
8bb
=263
4.aa[
8aa]
8gg
8ff
=264
8ee
8ff
8gg
8ff
8ee
8dd
=265
4.aa[
8aa]
8gg
8ff
=266
8ee
8ff
8gg
8ff
8ee
8dd
=267
4.bb-[
8bb-]
8aa
8ff
=268
8ee
8gg
8bb-
4.ccc#[
=269
8ccc#]
8ccc
8aa
8gg#
8bb
8ddd
=270
4.fff[
8fff]
8eee
8ccc
=271
2.r
=272
4.ccc#[
8ccc#]
8ddd
8eee
=273
4.ddd
4.r
=274
4.cc#[
8cc#]
8dd
8ee
=275
4.dd
4r
8cc#[
=276
4cc#]
8cc[
4cc]
8ee-[
=277
4ee-]
8dd[
4dd]
8ff[
=278
4ff]
8dd[
4dd]
8ddd[
=279
4ddd]
8ff[
4ff]
8fff[
=280
4fff]
8aa[
4aa]
8aaa[
=281
4aaa]
8a[
4a]
8aaa[
=282
4aaa]
8a[
4a]
8aaa
=283
8ddd
8aa
8ddd
4fff
8eee
=284
8r
8ggg
8fff
4eee
8ddd
=285
2.r
=286
4.r
8r
8a
8dd
=287
8cc#
8ee
8dd
8ff
8ee
8gg
=288
8ff
8aa
8gg
8bb-
8gg
8ee
=289
8cc
8aa
8gg
8bb-
8gg
8ee
=290
8cc#
8aa
8gg
8bb-
8gg
8ee
=291
8cc
8cc#
8b-
8g
8e
8f
=292
8d
8B
8A-
4.r
=293
8e
8A
8e
8e
8A
8a
=294
8a
8d
8a
8a
8d
8a
=295
8dd
8d
8dd
8dd
8d
8f#
=296
4.g
4.d
=297
4.aa[
4aa]
8ee
=298
2.ff[
=299
4.ff]
8ee
8gg
8bb-
=300
8ddd
8ccc
8bb-
8aa
8gg
8aa-
=301
4.aa[
4aa]
8ee
=302
2.ff#[
=303
4.ff#]
8gg
8bb-
8ddd
=304
8ggg
8fff
8eee
8ddd
8ccc
8ccc#
=305
8ddd
8ccc
8bb-
8aa
8gg
8aa-
=306
8aa
8gg
8ff
8ee
8dd
8cc#
=307
8dd
8d
8dd
8dd
8d
8dd
=308
8dd
8d
8dd
8dd
8d
8dd
=309
8b-
8B-
8b-
8b-
8B-
8b-
=310
4.dd
4.a
=311
2.r
=312
2.r
=313
8r
8a
8ff
4ee
8ff
=314
4dd
8aa
4ee
8ff
=315
4.dd
4.r
=316
2.r
=317
4.r
8r
8g
8a-
=318
4.a
8r
8a
8b-
=319
8b
8ccc
8aa
4ff#
8aa
=320
8gg
8bb-
8gg
4ee
8gg
=321
8ff#
8ccc
8aa
4ff#
8aa
=322
8gg
8bb-
8gg
4ee
8gg
=323
8ff#
8ccc
8aa
8ff#
8ee-
8cc
=324
8b-
8bb-
8gg
8ee
8cc#
8g
=325
4.f
4.r
=326
2.r
=327
4.ddd[
4ddd]
8aa
=328
4.bb-[
4bb-]
8ff
=329
4.bb-[
4bb-]
8ff[
=330
4.ff]
4.r
=331
2.r
=332
8r
8e
8g
8ee
8ee
8aa
=333
4.dd
4.r
=334
8r
8ee
8gg
8eee
8eee
8aaa
=335
4.ddd
4.r
=336
4.ddd
4.r
=337
2.r
==
*-
